X:360
T: Pat Murphy's
S: "First Collection of Traditional Irish Music" (M.Mulvihill)
Z: B.Black
L: 1/8
M: 2/4
R: polka
K: Edor
B/A/|BE ED|B,E E>G|FD D>E|FG A/B/c/A/|
GE EE/D/|B,E E>F|GB AF|E2 E :|
B/A/|Be e>d|eB BA|Be ed|e2 e>f|
ge fg/f/|eB B>A|GE EF|GA B :|
